frontend/public/svg/hand gestures/horizontal-scroll.svg

<svg width="127" height="143" viewBox="0 0 127 143" fill="none" xmlns="http://www.w3.org/2000/svg">
<g clip-path="url(#clip0)">
<path d="M125.572 75.5233C125.427 72.3105 124.473 69.1063 123.55 66.0063L123.438 65.6297C122.991 64.1164 122.204 62.7254 121.137 61.5632C120.069 60.401 118.75 59.4984 117.28 58.9245C112.724 57.0074 108.447 57.6289 104.559 60.7701C102.766 56.6779 99.837 54.0616 95.8465 52.9918C91.1688 51.7382 87.3679 52.7372 84.5411 55.9638C79.7465 49.3807 76.2016 48.6902 68.6223 52.879C68.5382 51.6258 68.4575 50.3787 68.3814 49.1378C68.1845 46.03 67.9876 42.816 67.6739 39.6774C67.0556 33.4421 66.3513 26.7475 65.3946 19.9649C64.8413 16.3398 63.3868 12.9113 61.165 9.99382C58.5397 6.43648 54.9129 5.65412 50.944 7.78918C49.7521 8.40627 48.7034 9.26712 47.8658 10.3159C47.0283 11.3647 46.4205 12.5779 46.0824 13.8767C45.5755 15.6253 45.2657 17.4249 45.1584 19.2423C45.1033 20.4263 45.0463 21.6101 44.9876 22.7937C44.7014 28.687 44.4049 34.7805 44.4101 40.7774C44.4154 48.068 44.5841 55.2122 44.7627 62.7765C44.8322 65.713 44.8977 68.6731 44.9594 71.6562C44.9115 71.6128 44.865 71.5708 44.8197 71.5288C44.4718 71.2013 44.1074 70.8922 43.7281 70.6021C36.9291 65.6138 29.6976 63.8792 22.2331 65.4433C20.6904 65.7388 19.2445 66.4101 18.0229 67.3972C16.8014 68.385 15.8419 69.6576 15.2294 71.1042C14.6086 72.6151 14.3695 74.2559 14.5333 75.8817C14.6971 77.5068 15.2586 79.0669 16.1684 80.4242C17.3298 82.1116 18.7218 83.6291 20.3035 84.9313C25.4877 89.3491 29.7656 94.731 32.9005 100.778C36.7223 108.194 41.0393 116.005 46.8938 126.09C48.2875 128.305 50.069 130.252 52.1535 131.836C56.3343 135.127 61.0281 137.709 66.0468 139.478C70.6759 141.219 75.5814 142.11 80.5276 142.109C86.3499 142.041 92.1159 140.962 97.5687 138.921C101.607 137.411 105.348 135.202 108.62 132.396C114.547 127.491 118.677 120.787 121.247 111.901C124.67 100.094 126.131 87.804 125.572 75.5233ZM51.1433 79.6661C51.0121 71.836 50.8382 63.568 50.636 55.0928C50.5947 53.3489 50.5174 51.5774 50.4393 49.8644C50.3034 46.7264 50.1616 43.4815 50.2345 40.3002C50.3914 33.4487 50.7936 26.4856 51.1828 19.7516L51.2965 17.7878C51.4501 15.108 52.0519 12.5273 55.3605 11.7548C57.4765 13.139 58.7866 15.4178 59.3642 18.712C60.2324 23.6652 60.8433 28.6601 61.1951 33.6765C61.65 40.228 61.9921 46.8997 62.3235 53.3508C62.4925 56.6483 62.6673 59.9455 62.8485 63.2425C62.9633 65.2982 63.7996 66.4855 65.403 66.8734C67.0221 67.2672 68.3564 66.4022 69.3652 64.3058L69.8175 63.3614C70.7527 61.4061 71.7208 59.3839 72.8189 57.4897C73.4818 56.3464 74.6822 55.0665 76.6585 55.4623C77.4874 55.6208 78.2429 56.0435 78.8112 56.6672C79.3796 57.2908 79.7308 58.0819 79.8122 58.9218C80.1449 60.9972 80.3097 63.0959 80.3064 65.1977C80.3169 68.0712 80.691 69.4791 82.7854 69.7082C84.8391 69.9313 85.5505 68.7236 86.3611 65.9243C86.9216 63.7888 87.704 61.7178 88.695 59.7449C89.9637 57.3926 91.474 56.8668 94.2693 57.8074C97.0259 58.7354 98.676 60.5686 99.1623 63.255C99.4104 64.8295 99.5568 66.4179 99.6014 68.0115C99.6211 68.4191 99.6434 68.826 99.667 69.2317C99.7543 70.7681 100.107 72.411 102.063 72.9478C104.018 73.4847 105.082 72.2626 105.935 70.8607C106.181 70.457 106.421 70.0481 106.662 69.6386C107.345 68.4001 108.129 67.2206 109.006 66.1114C110.39 64.4614 111.978 63.6567 113.475 63.8457C114.972 64.0347 116.31 65.2095 117.241 67.153C119.604 72.0808 120.462 77.7765 119.796 84.0826C119.124 90.457 118.147 97.2205 116.723 105.367C115.599 111.302 113.139 116.904 109.529 121.747C106.011 126.626 100.846 130.067 93.7364 132.265C80.7763 136.269 68.6682 134.119 56.719 125.686C55.4557 124.824 54.3524 123.748 53.4585 122.507C51.475 119.667 49.6481 116.72 47.9863 113.68C45.2717 108.62 42.6144 103.376 40.0888 98.0895C36.0852 89.7173 30.9708 83.125 24.4495 77.9399C23.3442 77.0572 22.4131 75.9762 21.7039 74.7521C21.5045 74.441 21.374 74.0912 21.3207 73.7256C21.2673 73.36 21.2928 72.9879 21.395 72.6328C21.5543 72.2305 21.7959 71.8662 22.1042 71.5623C22.4126 71.2591 22.7809 71.0235 23.1856 70.8705C24.4714 70.2936 25.8657 69.9976 27.2751 70.0028C28.0409 70.0055 28.8047 70.0816 29.556 70.2299C35.6599 71.4028 39.5111 73.635 42.0479 77.4674C42.7882 78.7256 43.3551 80.0776 43.7333 81.4874C43.8547 81.8694 43.977 82.2508 44.1044 82.6262C44.6045 84.097 45.3848 85.602 47.3755 85.6158H47.4044C49.0931 85.6158 50.3191 84.5657 50.77 82.7319C51.0258 81.7303 51.1518 80.6998 51.1453 79.6661H51.1433Z" fill="black"/>
<path d="M16.6711 5.9344C17.1804 5.3437 18.5331 3.7685 16.9592 2.20905C15.9839 1.24226 14.7132 1.33478 13.4714 2.46827C9.4881 6.10504 5.26401 9.99254 1.25641 14.0198C0.4524 14.8271 -0.100364 16.9438 0.468681 17.776C3.54494 22.2759 6.90075 26.8053 10.4515 31.2382C10.6973 31.5301 11.0052 31.7636 11.3524 31.9217C11.6997 32.0799 12.0778 32.1586 12.4593 32.1525H12.4843C12.8921 32.1541 13.2947 32.0627 13.6617 31.8851C14.0288 31.7076 14.3506 31.4486 14.6023 31.1279C14.9501 30.5967 15.184 29.9991 15.2891 29.3729C15.3943 28.7467 15.3686 28.1056 15.2135 27.4898C14.8275 26.4179 14.2314 25.4334 13.4608 24.5941C13.3066 24.4005 13.1531 24.2082 13.0061 24.0165C11.9645 22.6592 10.8953 21.3413 9.76382 19.9472C9.38577 19.4817 9.00247 19.0086 8.61392 18.5282L8.77 18.4744C8.94163 18.3973 9.12494 18.3492 9.31226 18.332C12.2128 18.3464 15.1131 18.3652 18.0132 18.3884C22.5131 18.4212 27.0132 18.454 31.5124 18.4619H31.845C34.319 18.5181 36.7941 18.4225 39.2564 18.1758C40.0833 18.1133 40.8583 17.7483 41.433 17.1506C42.0079 16.5528 42.3421 15.7642 42.3721 14.9354C42.4268 14.103 42.1528 13.2823 41.609 12.6497C41.0652 12.017 40.2949 11.6229 39.4638 11.552C37.0232 11.2334 34.5607 11.118 32.1011 11.2068C27.1208 11.4004 22.0591 11.6767 17.1694 11.9432C15.2774 12.0469 13.3854 12.1489 11.4934 12.249L11.322 11.9707C11.8002 11.4339 12.2797 10.898 12.7606 10.3634C14.0516 8.91811 15.3873 7.42822 16.6711 5.9344Z" fill="black"/>
<path d="M94.4578 10.3189C92.5269 10.3753 90.596 10.4257 88.6657 10.4699C85.0486 10.5592 81.3075 10.6504 77.6293 10.8026C76.0298 10.8318 74.4487 11.1491 72.9615 11.7392C72.1529 12.0851 71.5503 13.5277 71.5897 14.4912C71.6238 15.3209 72.8932 16.1432 73.5942 16.371C74.4021 16.5815 75.2396 16.6555 76.0725 16.5896C76.2832 16.5843 76.4932 16.5797 76.7 16.5797C79.9908 16.5797 83.2811 16.5772 86.5713 16.5719C90.1273 16.567 93.6847 16.5646 97.2414 16.5646C97.7664 16.5646 98.3119 16.6119 98.9984 16.6703C99.1953 16.6873 99.4079 16.7057 99.635 16.7241C99.3312 17.0628 99.0443 17.3805 98.766 17.6896C97.8951 18.6551 97.1423 19.4893 96.4328 20.3635C96.2647 20.5696 96.0941 20.7757 95.9228 20.9818C95.0275 21.9636 94.2701 23.0631 93.6722 24.2497C93.2613 25.1745 93.3073 26.8875 93.9807 27.6272C94.5871 28.2934 95.8184 28.3288 96.904 28.3603L97.2381 28.3702H97.2801C97.9279 28.2963 98.5239 27.9789 98.9472 27.4821C99.6692 26.6792 100.394 25.8783 101.122 25.0793C103.813 22.112 106.598 19.041 109.162 15.8795C110.618 14.0837 110.454 12.2446 108.688 10.5631C105.354 7.38573 101.893 4.29113 98.4024 1.36517C97.7028 0.779062 96.1164 0.80006 95.3071 1.22865C94.6016 1.60276 94.3259 3.17732 94.5268 3.96689C94.8661 5.0811 95.4515 6.10483 96.2398 6.96243C96.9526 7.76214 97.7146 8.5166 98.5212 9.22151C98.8054 9.48404 99.1119 9.76102 99.4362 10.0656C98.9072 10.0944 98.4162 10.1227 97.9542 10.1496C96.6087 10.2257 95.5454 10.2874 94.4578 10.3189Z" fill="black"/>
</g>
<defs>
<clipPath id="clip0">
<rect width="126.017" height="141.769" fill="white" transform="translate(0.0541992 0.543213)"/>
</clipPath>
</defs>
</svg>

<svg xmlns="http://www.w3.org/2000/svg" width="127" height="143" fill="none" viewBox="0 0 127 143"><g fill="#000" clip-path="url(#a)"><path d="M125.572 75.523c-.145-3.212-1.099-6.417-2.022-9.517l-.112-.376a10.35 10.35 0 0 0-6.158-6.705c-4.556-1.918-8.833-1.296-12.721 1.845-1.793-4.092-4.722-6.708-8.712-7.778-4.678-1.254-8.48-.255-11.306 2.972-4.794-6.583-8.34-7.274-15.919-3.085q-.127-1.88-.24-3.741c-.198-3.108-.394-6.322-.708-9.46-.618-6.236-1.323-12.93-2.28-19.713a21.9 21.9 0 0 0-4.229-9.971c-2.625-3.558-6.252-4.34-10.221-2.205a9.57 9.57 0 0 0-4.862 6.088 24.5 24.5 0 0 0-.924 5.365q-.083 1.776-.17 3.552c-.287 5.893-.583 11.987-.578 17.983.005 7.291.174 14.435.353 22q.105 4.404.196 8.88l-.14-.128a14 14 0 0 0-1.09-.927c-6.8-4.988-14.031-6.723-21.496-5.159a9.56 9.56 0 0 0-7.004 5.661 9.95 9.95 0 0 0 .94 9.32 22 22 0 0 0 4.134 4.507 52.7 52.7 0 0 1 12.598 15.847c3.821 7.416 8.138 15.227 13.993 25.312a21.8 21.8 0 0 0 5.26 5.746 48.6 48.6 0 0 0 13.893 7.642 41.1 41.1 0 0 0 14.48 2.631 50.3 50.3 0 0 0 17.042-3.188 36.8 36.8 0 0 0 11.051-6.525c5.927-4.905 10.057-11.609 12.627-20.495a112.3 112.3 0 0 0 4.325-36.378m-74.429 4.143c-.13-7.83-.305-16.098-.507-24.573a241 241 0 0 0-.197-5.229c-.136-3.138-.277-6.382-.205-9.564.157-6.851.56-13.814.949-20.548l.114-1.964c.153-2.68.755-5.26 4.064-6.033 2.116 1.384 3.426 3.663 4.003 6.957.868 4.953 1.48 9.948 1.831 14.964.455 6.552.797 13.224 1.129 19.675q.253 4.946.525 9.892c.114 2.055.95 3.242 2.554 3.63 1.62.394 2.953-.47 3.962-2.567l.453-.945c.935-1.955 1.903-3.977 3-5.871.664-1.144 1.864-2.424 3.84-2.028a3.9 3.9 0 0 1 3.154 3.46 39 39 0 0 1 .494 6.276c.01 2.873.385 4.281 2.48 4.51 2.053.223 2.764-.984 3.575-3.784a31.7 31.7 0 0 1 2.334-6.18c1.269-2.351 2.779-2.877 5.574-1.937 2.757.928 4.407 2.762 4.893 5.448a37 37 0 0 1 .44 4.756q.03.612.065 1.22c.087 1.537.44 3.18 2.396 3.717s3.019-.685 3.872-2.087q.367-.607.727-1.222a25.7 25.7 0 0 1 2.344-3.528c1.384-1.65 2.972-2.454 4.469-2.265s2.835 1.364 3.766 3.307c2.363 4.928 3.221 10.623 2.555 16.93-.672 6.374-1.649 13.138-3.073 21.284a39.8 39.8 0 0 1-7.194 16.38c-3.518 4.879-8.683 8.32-15.793 10.518-12.96 4.004-25.068 1.854-37.017-6.579a13.2 13.2 0 0 1-3.26-3.179 95 95 0 0 1-5.473-8.827 376 376 0 0 1-7.897-15.59c-4.004-8.373-9.118-14.965-15.64-20.15a11.4 11.4 0 0 1-2.745-3.188 2.6 2.6 0 0 1-.309-2.12 3.1 3.1 0 0 1 1.79-1.761 9.9 9.9 0 0 1 4.09-.868c.766.002 1.53.079 2.281.227 6.104 1.173 9.955 3.405 12.492 7.237a16.2 16.2 0 0 1 1.685 4.02q.182.575.371 1.14c.5 1.47 1.28 2.975 3.272 2.989h.028c1.69 0 2.915-1.05 3.366-2.884.256-1.002.382-2.032.375-3.066zM16.671 5.934c.51-.59 1.862-2.165.288-3.725-.975-.967-2.246-.874-3.488.26-3.983 3.636-8.207 7.524-12.215 11.55-.804.808-1.356 2.925-.787 3.757a222 222 0 0 0 9.983 13.462 2.57 2.57 0 0 0 2.007.915h.025a2.68 2.68 0 0 0 2.118-1.025 4.6 4.6 0 0 0 .611-3.638 8.6 8.6 0 0 0-1.752-2.896q-.233-.29-.455-.578a191 191 0 0 0-3.242-4.069q-.568-.698-1.15-1.419l.156-.054q.26-.116.542-.142 4.35.021 8.701.056c4.5.033 9 .066 13.5.074h.332a61 61 0 0 0 7.411-.286 3.37 3.37 0 0 0 3.116-3.24 3.186 3.186 0 0 0-2.908-3.384 44.5 44.5 0 0 0-7.363-.345c-4.98.193-10.042.47-14.932.736q-2.838.156-5.676.306l-.171-.278q.717-.806 1.439-1.608c1.29-1.445 2.626-2.935 3.91-4.429m77.787 4.385q-2.897.085-5.792.15c-3.617.09-7.358.181-11.037.334-1.6.029-3.18.346-4.668.936-.808.346-1.41 1.789-1.371 2.752.034.83 1.303 1.652 2.004 1.88.808.21 1.646.285 2.479.219q.316-.01.627-.01 4.936 0 9.871-.008 5.335-.007 10.67-.007c.525 0 1.07.047 1.757.105l.637.054-.869.966c-.87.965-1.624 1.8-2.333 2.673q-.253.31-.51.619a14.6 14.6 0 0 0-2.25 3.268c-.412.924-.366 2.637.308 3.377.606.666 1.837.702 2.923.733l.334.01h.042a2.57 2.57 0 0 0 1.667-.888q1.083-1.205 2.175-2.403c2.691-2.967 5.476-6.038 8.04-9.2 1.456-1.795 1.292-3.634-.474-5.316a218 218 0 0 0-10.286-9.198c-.7-.586-2.286-.565-3.095-.136-.705.374-.981 1.948-.78 2.738a7.8 7.8 0 0 0 1.713 2.995 26 26 0 0 0 2.281 2.26c.284.262.59.539.915.844-.529.028-1.02.057-1.482.084-1.345.076-2.409.137-3.496.169"/></g><defs><clipPath id="a"><path fill="#fff" d="M.054.543h126.017v141.77H.054z"/></clipPath></defs></svg>
